sitelenpona/static/ni-3.svg

<svg xmlns="http://www.w3.org/2000/svg" xmlns:xlink="http://www.w3.org/1999/xlink" version="1.1" viewBox="40 40 374 722">
   <path fill="currentColor" d="M368 245q0 4 14.5 25t14.5 34q0 7 -11 16t-18 9q-8 0 -29 -10t-21 -15q0 -9 -6 -24t-13.5 -27.5t-8.5 -14.5q-6 -24 -13 -1q-7 24 -10 109q0 1 -2.5 54.5l-2.5 53.5q0 29 6 72.5t10 47.5q1 1 1 25q0 49 -2.5 75t-5.5 32t-9 11q-14 12 -24 9q-13 -3 -18 -11.5t-5 -34.5 l0.5 -24t0.5 -27q0 -21 -3 -33t-4 -47l-2.5 -66.5t-2.5 -68.5q0 -22 2 -95t2 -94q0 -34 -5 -34q-3 0 -10.5 5.5t-7.5 10t-14 18t-14 16.5q0 8 -28.5 41t-44.5 33q-7 0 -18 -11q-8 -8 -9 -12t4 -17q7 -14 16.5 -23t27.5 -46q10 -19 33.5 -45t40.5 -38q14 -8 25.5 -21.5 t20 -21t20.5 -7.5q13 0 22 9t10 14t23.5 42t30.5 45t15 21.5t11.5 22.5t6.5 9q4 0 4 9z"/>
</svg>

<svg xmlns="http://www.w3.org/2000/svg" xmlns:xlink="http://www.w3.org/1999/xlink" version="1.1" viewBox="38 40 376 722">
  <g>
    <path fill="currentColor" d="M 368.0,245.0 Q 368.0,249.0 382.5,270.0 Q 397.0,291.0 397.0,304.0 Q 397.0,311.0 386.0,320.0 Q 375.0,329.0 368.0,329.0 Q 360.0,329.0 339.0,319.0 Q 318.0,309.0 318.0,304.0 Q 318.0,295.0 312.0,280.0 Q 306.0,265.0 298.5,252.5 Q 291.0,240.0 290.0,238.0 Q 284.0,214.0 277.0,237.0 Q 270.0,261.0 267.0,346.0 Q 267.0,347.0 264.5,400.5 L 262.0,454.0 Q 262.0,483.0 268.0,526.5 Q 274.0,570.0 278.0,574.0 Q 279.0,575.0 279.0,599.0 Q 279.0,648.0 276.5,674.0 Q 274.0,700.0 271.0,706.0 Q 268.0,712.0 262.0,717.0 Q 248.0,729.0 238.0,726.0 Q 225.0,723.0 220.0,714.5 Q 215.0,706.0 215.0,680.0 L 215.5,656.0 Q 215.5,656.0 216.0,629.0 Q 216.0,608.0 213.0,596.0 Q 210.0,584.0 209.0,549.0 L 206.5,482.5 Q 206.5,482.5 204.0,414.0 Q 204.0,392.0 206.0,319.0 Q 208.0,246.0 208.0,225.0 Q 208.0,191.0 203.0,191.0 Q 200.0,191.0 192.5,196.5 Q 185.0,202.0 185.0,206.5 Q 185.0,211.0 171.0,224.5 Q 157.0,238.0 157.0,241.0 Q 157.0,249.0 128.5,282.0 Q 100.0,315.0 84.0,315.0 Q 77.0,315.0 66.0,304.0 Q 58.0,296.0 57.0,292.0 Q 56.0,288.0 61.0,275.0 Q 68.0,261.0 77.5,252.0 Q 87.0,243.0 105.0,206.0 Q 115.0,187.0 138.5,161.0 Q 162.0,135.0 179.0,123.0 Q 193.0,115.0 204.5,101.5 Q 216.0,88.0 224.5,80.5 Q 233.0,73.0 245.0,73.0 Q 258.0,73.0 267.0,82.0 Q 276.0,91.0 277.0,96.0 Q 278.0,101.0 300.5,138.0 Q 323.0,175.0 331.0,183.0 Q 339.0,191.0 346.0,204.5 Q 353.0,218.0 357.5,227.0 Q 362.0,236.0 364.0,236.0 Q 368.0,236.0 368.0,245.0"/>
  </g>
</svg>
